!!!!SEGMENT: pl-kk--kk-i-277--002-007_anonim--rorate-caeli-ave-maria.krn
!!!cenid: 16xx:1089
!!!COM: Anonim
!!!COM-rismid: pe30004985
!!!CDT:
!!!CNT:
!!!OPR: Rorate caeli
!!!OTL: Ave Maria
!!!OMV: 007
!!!PDT:
!!!AGN: Sacred
!!!SMS-siglum: PL-Kk
!!!SMS-shelfmark: Kk.I.277
!!!SMS-shelfwork: 002-007 M
!!!SMS-variant:
!!!SMS-altvar:
!!!NIFC-rismid: 1001147188
!!!URL-scan: http://repozytorium.nifc.pl/skany/pl-kk-nut--i-277
!!!ONB-nifc: UWAGA: Introitus Secundi officii od str. 5. części: 1. Rorate caeli (Rorate caeli + Benedixisti + Gloria patri), 2. Kyrie, 3. Et in terra, 4. Tollite portas, 5. Alleluia, 6. Mittit ad virginem, 7. Ave Maria, 8. Sanctus, 9. Agnus Dei, 10. Ecce virgo
!!!key:
**kern	**text
*Itenor	*
*I"[Tenore]	*
*I'[T]	*
*clefC4	*
*k[]	*
*C:	*
*M2/1	*
*met(C)	*
=1-	=1-
*lig	*
1F	A-
1G	.
*Xlig	*
=2-	=2-
*lig	*
1A	.
1G	.
*Xlig	*
=3-	=3-
*lig	*
1A	.
1F	.
*Xlig	*
=4-	=4-
*lig	*
1A	.
1F	.
*Xlig	*
=5-	=5-
*lig	*
1G	.
1F	.
*Xlig	*
=6-	=6-
1E	.
0D	.
=7-	=7-
.	.
0F	.
=8-	=8-
.	.
1G	.
=9-	=9-
*lig	*
1A	.
1F	.
*Xlig	*
=10-	=10-
1G	.
*lig	*
1A	.
=11-	=11-
1F	.
*Xlig	*
1F	.
=12-	=12-
*lig	*
1G	.
1A	.
*Xlig	*
=13-	=13-
!LO:TX:a:t=P:global:problem=cezura na różnych wysokościach	!
1G,	-ve
*lig	*
1G	Ma-
=14-	=14-
1A	.
*Xlig	*
*custos:B	*
1c	.
!LO:LB:g=original	!
=15-	=15-
*lig	*
1B	.
1c	.
*Xlig	*
=16-	=16-
1A	-ri-
1G	.
=17-	=17-
1F	.
*lig	*
1G	.
=18-	=18-
1A	.
*Xlig	*
*lig	*
1c	.
=19-	=19-
1A	.
*Xlig	*
1F	.
=20-	=20-
1G,	-a
0G	gra-
=21-	=21-
.	.
1D	.
=22-	=22-
*lig	*
1F	.
1E	.
*Xlig	*
=23-	=23-
*lig	*
1G	.
1D,	.
*Xlig	*
=24-	=24-
1D	.
*lig	*
1E	.
=25-	=25-
1F	.
*Xlig	*
1G	-ti-
=26-	=26-
*lig	*
1F	-a
1G	.
*Xlig	*
=27-	=27-
0G	ple-
=28-	=28-
*lig	*
1A	.
1G	.
*Xlig	*
=29-	=29-
1G,	-na
1A	Do-
=30-	=30-
*lig	*
1c	.
*custos:A	*
1B	.
*Xlig	*
!LO:LB:g=original	!
=31-	=31-
1A	.
1d	.
=32-	=32-
*lig	*
1c	.
1B	.
*Xlig	*
=33-	=33-
1A	.
*lig	*
1c	.
=34-	=34-
1G	.
*Xlig	*
1A	.
=35-	=35-
1c	.
*lig	*
1B	.
=36-	=36-
1A,	.
*Xlig	*
1d	.
=37-	=37-
*lig	*
1c	.
1B	.
*Xlig	*
=38-	=38-
1A	.
*lig	*
1c	.
=39-	=39-
1G	.
*Xlig	*
*lig	*
1A	.
=40-	=40-
1B	.
*Xlig	*
*lig	*
1c	.
=41-	=41-
1G	.
*Xlig	*
1F	.
=42-	=42-
1G	-mi-
1G,	-n(us)
=43-	=43-
0G	te-
=44-	=44-
*lig	*
1E	.
1D	.
*Xlig	*
=45-	=45-
*lig	*
1E	.
[>1G	.
*Xlig	*
=46-	=46-
1G]	.
!LO:LB:g=original	!
*lig	*
1A	.
=47-	=47-
1G	.
*Xlig	*
*lig	*
1F	.
=48-	=48-
1G	.
*Xlig	*
*lig	*
1A	-c(um)
=49-	=49-
1G,	.
*Xlig	*
1G	be-
=50-	=50-
1c	-be-
1c	-di-
=51-	=51-
1d	.
*lig	*
1e	.
=52-	=52-
1d	.
*Xlig	*
1c	-cta
=53-	=53-
*lig	*
1d	.
1c	.
*Xlig	*
=54-	=54-
*lig	*
1c	tu
1B	.
*Xlig	*
=55-	=55-
1c	.
*lig	*
1d	.
=56-	=56-
1A	.
*Xlig	*
1G,	.
=57-	=57-
1A	in
1G	mu-
=58-	=58-
1c	.
*lig	*
1B	.
=59-	=59-
1A	.
*Xlig	*
1d	-li-
=60-	=60-
*lig	*
1c	-e-
*custos:A	*
1B	.
*Xlig	*
!LO:LB:g=original	!
=61-	=61-
1A	.
*lig	*
1c	.
=62-	=62-
1B	.
*Xlig	*
1A	.
=63-	=63-
1c	-ri-
1c,	-b(us)
=64-	=64-
1G	et
1B	be-
=65-	=65-
1c	-ne-
*lig	*
1d	.
=66-	=66-
1c	.
*Xlig	*
1A	-di-
=67-	=67-
*lig	*
1c	.
1A	.
*Xlig	*
=68-	=68-
1c	.
1G	-ctus
=69-	=69-
*lig	*
1A	.
1B	.
*Xlig	*
=70-	=70-
*lig	*
1c	.
1A	.
*Xlig	*
=71-	=71-
*lig	*
1G	fru-
1F	.
*Xlig	*
=72-	=72-
*lig	*
1G	.
1A	.
*Xlig	*
=73-	=73-
*lig	*
1F	.
1E	.
*Xlig	*
=74-	=74-
1F	.
1D,	-ct(us)
!LO:PB:g=original	!
=75-	=75-
*lig	*
1D	ven-
1E	.
*Xlig	*
=76-	=76-
*lig	*
1F	.
1G	.
*Xlig	*
=77-	=77-
1A	.
*lig	*
1F	.
=78-	=78-
1E	.
*Xlig	*
0D	.
=79-	=79-
.	.
1E	.
=80-	=80-
1F	.
*lig	*
1G	-tris
=81-	=81-
1F	.
*Xlig	*
*lig	*
1A	.
=82-	=82-
1F	.
*Xlig	*
1G	.
=83-	=83-
*lig	*
1G	tu-
1A	.
*Xlig	*
=84-	=84-
0G	.
=85-	=85-
0Gl;;	-i
==	==
*-	*-
!!!RDF**kern: > = above
!!!RDF**kern: l = terminal long
!!!AIN: 1 tenor
!!!ENC: Marta Lawrence
!!!END: 2021-03-28
!!!ENC: Tomasz Grochalski
!!!END: 2021-03-15
